Papirus/64x64/mimetypes/text-x-vue.svg

<svg xmlns="http://www.w3.org/2000/svg" width="64" height="64" version="1.1">
 <path style="opacity:0.2" d="m12.75 5c-1.5235 0-2.75 1.2488-2.75 2.8v50.4c0 1.55008 1.2265 2.8 2.75 2.8h38.5c1.5224 0 2.75-1.24992 2.75-2.8v-35.2l-14-4-4-14z"/>
 <path style="fill:#60924f" d="m12.75 4c-1.5235 0-2.75 1.2488-2.75 2.8v50.4c0 1.55008 1.2265 2.8 2.75 2.8h38.5c1.5224 0 2.75-1.24992 2.75-2.8v-35.2l-14-4-4-14z"/>
 <path style="opacity:0.2" d="m54 23-18-18v15.1875c0 1.55925 1.2555 2.8125 2.8125 2.8125z"/>
 <path style="fill:#74b055" d="m54 22-18-18v15.1875c0 1.55925 1.2555 2.8125 2.8125 2.8125z"/>
 <path style="fill:#ffffff;opacity:0.2" d="M 12.75,4 C 11.2265,4 10,5.2495812 10,6.8007812 v 1 C 10,6.2495813 11.2265,5 12.75,5 H 36 V 4 Z"/>
 <path style="opacity:0.2" d="M 46,30 32,54 18,30 h 2 L 32,50 44,30 Z M 32,35 29,30 H 24 L 32,44 40,30 h -5 z"/>
 <path style="fill:#fefefe" d="M 46,29 32,53 18,29 h 2 L 32,49 44,29 Z M 32,34 29,29 H 24 L 32,43 40,29 h -5 z"/>
</svg>

<?xml version="1.0" encoding="UTF-8" standalone="no"?>
<svg
   id="_图层_1"
   data-name="图层_1"
   version="1.1"
   viewBox="0 0 128 128"
   width="64"
   height="64"
   sodipodi:docname="text-x-vue.svg"
   xml:space="preserve"
   inkscape:version="1.4 (e7c3feb100, 2024-10-09)"
   xmlns:inkscape="http://www.inkscape.org/namespaces/inkscape"
   xmlns:sodipodi="http://sodipodi.sourceforge.net/DTD/sodipodi-0.dtd"
   xmlns="http://www.w3.org/2000/svg"
   xmlns:svg="http://www.w3.org/2000/svg"><sodipodi:namedview
     id="namedview3"
     pagecolor="#505050"
     bordercolor="#eeeeee"
     borderopacity="1"
     inkscape:showpageshadow="0"
     inkscape:pageopacity="0"
     inkscape:pagecheckerboard="0"
     inkscape:deskcolor="#505050"
     inkscape:zoom="10.6875"
     inkscape:cx="32"
     inkscape:cy="26.19883"
     inkscape:window-width="1920"
     inkscape:window-height="939"
     inkscape:window-x="0"
     inkscape:window-y="34"
     inkscape:window-maximized="1"
     inkscape:current-layer="_图层_1" /><!-- Generator: Adobe Illustrator 29.0.1, SVG Export Plug-In . SVG Version: 2.1.0 Build 192)  --><defs
     id="defs1"><style
       id="style1">
      .st0 {
        fill: #0071e9;
      }

      .st1 {
        fill: #fff;
      }

      .st2 {
        fill: #5aaaff;
        isolation: isolate;
        opacity: .5;
      }
    </style></defs><path
     class="st0"
     d="M18.2,0c-5.6,0-10.2,4.6-10.2,10.2v107.6c0,5.6,4.6,10.2,10.2,10.2h91.6c5.6,0,10.2-4.6,10.2-10.2V40.6L82.2,0H18.2Z"
     id="path1"
     style="fill:#60924f;fill-opacity:1" /><path
     class="st2"
     d="m 82.761404,2.619883 v 29.2 c 0,3.2 2.145542,11.6 11.89801,11.6 h 24.966316 z"
     id="path2"
     style="fill:#4d753f;fill-opacity:1;stroke-width:0.987546" /><path
     class="st2"
     d="M 82.116964,0.02339171 V 29.223392 c 0,3.2 2.2,11.6 12.2,11.6 h 25.599996 z"
     id="path2-3"
     style="opacity:1;isolation:isolate;fill:#74b055;fill-opacity:1" /><g
     id="g7"
     transform="matrix(2.5358852,0,0,2.2856263,-17.33546,-9.0313943)"><path
       style="opacity:0.2"
       d="M 46,30 32,54 18,30 h 2 L 32,50 44,30 Z m -14,5 -3,-5 h -5 l 8,14 8,-14 h -5 z"
       id="path6" /><path
       style="fill:#fefefe"
       d="M 46,29 32,53 18,29 h 2 L 32,49 44,29 Z m -14,5 -3,-5 h -5 l 8,14 8,-14 h -5 z"
       id="path7" /></g></svg>
